img/Shortly.svg

<svg width="121" height="33" viewBox="0 0 121 33" fill="none" xmlns="http://www.w3.org/2000/svg">
<path id="Shortly" fill-rule="evenodd" clip-rule="evenodd" d="M34.6988 25.0001H40.1388V13.5761C40.1388 12.8054 40.0708 12.0177 39.9348 11.2131C39.7988 10.4084 39.5324 9.68306 39.1357 9.03705C38.7391 8.39105 38.1724 7.85839 37.4358 7.43905C36.6991 7.01972 35.7301 6.81005 34.5288 6.81005C33.2367 6.81005 32.0524 7.09905 30.9758 7.67705C29.8991 8.25506 29.0321 9.07672 28.3748 10.1421V0.180054H22.9348V25.0001H28.3748V14.7661C28.5334 14.2901 28.7601 13.8594 29.0548 13.4741C29.3494 13.0887 29.6724 12.7544 30.0238 12.4711C30.3751 12.1877 30.7377 11.9724 31.1118 11.8251C31.4858 11.6777 31.8314 11.6041 32.1488 11.6041C32.9421 11.6041 33.5654 11.8761 34.0188 12.4201C34.4721 12.9641 34.6988 13.814 34.6988 14.9701V25.0001ZM16.0006 7.42205C16.4086 7.67139 16.6466 7.84139 16.7146 7.93205L19.1626 3.30805C18.6186 2.99072 18.0236 2.67339 17.3776 2.35605C16.7316 2.03872 16.0346 1.75539 15.2866 1.50605C14.5386 1.25672 13.7566 1.05272 12.9406 0.894054C12.1246 0.735386 11.2973 0.656054 10.4586 0.656054C9.2573 0.656054 8.11831 0.826052 7.04164 1.16605C5.96497 1.50606 5.01864 2.01038 4.20264 2.67905C3.38664 3.34772 2.74064 4.16938 2.26464 5.14405C1.78864 6.11873 1.55064 7.24071 1.55064 8.51005C1.55064 9.41673 1.68097 10.2101 1.94164 10.8901C2.20231 11.5701 2.59897 12.1707 3.13164 12.6921C3.66431 13.2134 4.33864 13.6724 5.15464 14.0691C5.97064 14.4657 6.93397 14.8341 8.04464 15.1741C8.38011 15.2738 8.7056 15.3699 9.02112 15.4624L10.7226 15.9575C11.2909 16.1322 11.7922 16.3187 12.2266 16.5171C12.748 16.7551 13.156 17.0214 13.4506 17.3161C13.7453 17.6107 13.8926 17.9847 13.8926 18.4381C13.8926 19.6394 12.9066 20.2401 10.9346 20.2401C10.0053 20.2401 9.08731 20.1154 8.18064 19.8661C7.27397 19.6167 6.45231 19.3334 5.71564 19.0161C4.97897 18.6987 4.36131 18.3814 3.86264 18.0641C3.36397 17.7467 3.06931 17.5314 2.97864 17.4181L0.53064 22.2801C1.23331 22.7561 1.9983 23.1754 2.82564 23.5381C3.65298 23.9007 4.50864 24.2124 5.39264 24.4731C6.27664 24.7337 7.1833 24.9321 8.11264 25.0681C9.04198 25.2041 9.94864 25.2721 10.8326 25.2721C11.9886 25.2721 13.1106 25.1417 14.1986 24.8811C15.2866 24.6204 16.25 24.2011 17.0886 23.6231C17.9273 23.045 18.6016 22.2857 19.1116 21.3451C19.6216 20.4044 19.8766 19.2541 19.8766 17.8941C19.8766 16.7834 19.701 15.8314 19.3496 15.0381C18.9983 14.2447 18.4996 13.5704 17.8536 13.0151C17.2076 12.4597 16.42 11.9951 15.4906 11.6211C14.5613 11.2471 13.5186 10.9014 12.3626 10.5841C12.0831 10.5085 11.8149 10.4355 11.558 10.3649L10.1526 9.97205C9.51797 9.79072 8.99098 9.59239 8.57164 9.37705C8.1523 9.16172 7.83497 8.91805 7.61964 8.64605C7.40431 8.37405 7.29664 8.03406 7.29664 7.62605C7.29664 6.28871 8.29396 5.62005 10.2886 5.62005C11.014 5.62005 11.7393 5.72205 12.4646 5.92605C13.19 6.13005 13.8586 6.36805 14.4706 6.64005C15.0826 6.91206 15.5926 7.17272 16.0006 7.42205ZM52.4789 25.3401C50.9602 25.3401 49.6059 25.0907 48.4159 24.5921C47.2259 24.0934 46.2229 23.4191 45.4069 22.5691C44.5909 21.719 43.9732 20.7331 43.5539 19.6111C43.1345 18.489 42.9249 17.3161 42.9249 16.0921C42.9249 14.868 43.1345 13.6951 43.5539 12.5731C43.9732 11.451 44.5909 10.4651 45.4069 9.61505C46.2229 8.76505 47.2259 8.08506 48.4159 7.57505C49.6059 7.06505 50.9602 6.81005 52.4789 6.81005C53.9975 6.81005 55.3462 7.06505 56.5249 7.57505C57.7035 8.08506 58.7009 8.76505 59.5169 9.61505C60.3329 10.4651 60.9562 11.451 61.3869 12.5731C61.8175 13.6951 62.0329 14.868 62.0329 16.0921C62.0329 17.3161 61.8232 18.489 61.4039 19.6111C60.9845 20.7331 60.3669 21.719 59.5509 22.5691C58.7349 23.4191 57.7319 24.0934 56.5419 24.5921C55.3519 25.0907 53.9975 25.3401 52.4789 25.3401ZM49.6229 19.4751C48.8749 18.625 48.5009 17.4974 48.5009 16.0921C48.5009 15.4121 48.6029 14.7831 48.8069 14.2051C49.0109 13.6271 49.2885 13.1341 49.6399 12.7261C49.9912 12.3181 50.4105 12.0007 50.8979 11.7741C51.3852 11.5474 51.9122 11.4341 52.4789 11.4341C53.6122 11.4341 54.5529 11.859 55.3009 12.7091C56.0489 13.5591 56.4229 14.6867 56.4229 16.0921C56.4229 16.7721 56.3209 17.4011 56.1169 17.9791C55.9129 18.5571 55.6352 19.0501 55.2839 19.4581C54.9325 19.8661 54.5189 20.1834 54.0429 20.4101C53.5669 20.6367 53.0455 20.7501 52.4789 20.7501C51.3229 20.7501 50.3709 20.3251 49.6229 19.4751ZM76.277 11.8081C74.9623 11.8307 73.7723 12.0461 72.707 12.4541C71.6416 12.8621 70.871 13.474 70.395 14.2901V25.0001H64.955V7.15005H69.953V10.7541C70.565 9.55271 71.3526 8.61206 72.316 7.93205C73.2793 7.25205 74.305 6.90072 75.393 6.87805H75.937C76.0503 6.87805 76.1636 6.88939 76.277 6.91205V11.8081ZM87.7841 24.9321C88.7474 24.6601 89.6031 24.3654 90.3511 24.0481L89.2971 19.7301C88.9798 19.8887 88.6058 20.0361 88.1751 20.1721C87.7444 20.3081 87.3251 20.3761 86.9171 20.3761C86.4638 20.3761 86.0898 20.2457 85.7951 19.9851C85.5004 19.7244 85.3531 19.2994 85.3531 18.7101V11.2641H88.9911V7.15005H85.3531V1.47205H79.9131V7.15005H77.6351V11.2641H79.9131V20.5801C79.9131 21.4414 80.0434 22.1781 80.3041 22.7901C80.5648 23.4021 80.9218 23.8951 81.3751 24.2691C81.8284 24.6431 82.3554 24.9151 82.9561 25.0851C83.5568 25.2551 84.1971 25.3401 84.8771 25.3401C85.8518 25.3401 86.8207 25.2041 87.7841 24.9321ZM92.6272 0.180054H98.0672V18.6421C98.0672 20.0021 98.6452 20.6821 99.8012 20.6821C100.073 20.6821 100.374 20.6424 100.702 20.5631C101.031 20.4837 101.331 20.3647 101.603 20.2061L102.317 24.2861C101.637 24.6034 100.855 24.8527 99.9712 25.0341C99.0872 25.2154 98.2599 25.3061 97.4892 25.3061C95.9252 25.3061 94.7239 24.8981 93.8852 24.0821C93.0465 23.2661 92.6272 22.0874 92.6272 20.5461V0.180054ZM105.358 28.0261C104.962 27.9581 104.537 27.8447 104.083 27.6861V32.3441C104.559 32.5254 105.03 32.6557 105.494 32.7351C105.959 32.8144 106.418 32.8541 106.871 32.8541C108.549 32.8541 109.999 32.3951 111.223 31.4771C112.447 30.559 113.297 29.3634 113.773 27.8901L120.573 7.15005H115.473L111.903 20.3421L107.755 7.15005H102.145L108.945 25.0001C108.651 26.1787 108.322 26.9947 107.959 27.4481C107.597 27.9014 107.087 28.1281 106.429 28.1281C106.112 28.1281 105.755 28.0941 105.358 28.0261Z" fill="#34313D"/>
</svg>

<svg width="121" height="33" fill="none" xmlns="http://www.w3.org/2000/svg"><path fill-rule="evenodd" clip-rule="evenodd" d="M34.699 25h5.44V13.576c0-.77-.068-1.558-.204-2.363a6.036 6.036 0 0 0-.8-2.176c-.396-.646-.963-1.179-1.7-1.598-.736-.42-1.705-.629-2.906-.629-1.292 0-2.477.29-3.553.867a6.785 6.785 0 0 0-2.601 2.465V.18h-5.44V25h5.44V14.766c.158-.476.385-.907.68-1.292.294-.385.617-.72.969-1.003a4.168 4.168 0 0 1 1.088-.646c.374-.147.72-.22 1.037-.22.793 0 1.416.271 1.87.815.453.544.68 1.394.68 2.55V25ZM16 7.422c.408.25.646.42.714.51l2.448-4.624a28.403 28.403 0 0 0-1.785-.952 16.76 16.76 0 0 0-2.091-.85c-.748-.25-1.53-.453-2.346-.612a12.973 12.973 0 0 0-2.482-.238c-1.202 0-2.34.17-3.417.51a8.435 8.435 0 0 0-2.84 1.513 7.266 7.266 0 0 0-1.937 2.465c-.476.975-.714 2.097-.714 3.366 0 .907.13 1.7.39 2.38.261.68.658 1.28 1.19 1.802.533.521 1.208.98 2.024 1.377.816.397 1.779.765 2.89 1.105.335.1.66.196.976.288l1.702.495c.568.175 1.07.362 1.504.56.521.238.929.504 1.224.8.294.294.442.668.442 1.121 0 1.201-.986 1.802-2.958 1.802-.93 0-1.848-.125-2.754-.374a18.94 18.94 0 0 1-2.465-.85 13.255 13.255 0 0 1-1.853-.952c-.499-.317-.794-.533-.884-.646L.53 22.28c.702.476 1.467.895 2.295 1.258a21.63 21.63 0 0 0 2.567.935 19.689 19.689 0 0 0 5.44.8 14.4 14.4 0 0 0 3.366-.392c1.088-.26 2.051-.68 2.89-1.258a6.45 6.45 0 0 0 2.023-2.278c.51-.94.765-2.09.765-3.45 0-1.112-.176-2.064-.527-2.857a5.646 5.646 0 0 0-1.496-2.023c-.646-.555-1.434-1.02-2.363-1.394-.93-.374-1.972-.72-3.128-1.037-.28-.075-.548-.149-.805-.22l-1.405-.392c-.635-.181-1.162-.38-1.581-.595-.42-.215-.737-.459-.952-.731-.216-.272-.323-.612-.323-1.02 0-1.337.997-2.006 2.992-2.006.725 0 1.45.102 2.176.306a14.81 14.81 0 0 1 2.006.714c.612.272 1.122.533 1.53.782ZM52.479 25.34c-1.519 0-2.873-.25-4.063-.748-1.19-.499-2.193-1.173-3.01-2.023a8.541 8.541 0 0 1-1.852-2.958 9.969 9.969 0 0 1-.63-3.519c0-1.224.21-2.397.63-3.519a8.54 8.54 0 0 1 1.853-2.958c.816-.85 1.819-1.53 3.009-2.04s2.544-.765 4.063-.765c1.519 0 2.867.255 4.046.765 1.178.51 2.176 1.19 2.992 2.04a8.755 8.755 0 0 1 1.87 2.958 9.737 9.737 0 0 1 .646 3.52 9.97 9.97 0 0 1-.63 3.518 8.543 8.543 0 0 1-1.852 2.958c-.816.85-1.82 1.524-3.01 2.023-1.19.499-2.543.748-4.062.748Zm-2.856-5.865c-.748-.85-1.122-1.978-1.122-3.383 0-.68.102-1.309.306-1.887a4.568 4.568 0 0 1 .833-1.479 3.7 3.7 0 0 1 2.839-1.292c1.133 0 2.074.425 2.822 1.275.748.85 1.122 1.978 1.122 3.383 0 .68-.102 1.31-.306 1.887a4.57 4.57 0 0 1-.833 1.48 3.753 3.753 0 0 1-1.241.951c-.476.227-.998.34-1.564.34-1.156 0-2.108-.425-2.856-1.275Zm26.654-7.667c-1.315.023-2.505.238-3.57.646-1.065.408-1.836 1.02-2.312 1.836V25h-5.44V7.15h4.998v3.604c.612-1.201 1.4-2.142 2.363-2.822.963-.68 1.989-1.031 3.077-1.054h.544c.113 0 .227.011.34.034v4.896Zm11.507 13.124a21.718 21.718 0 0 0 2.567-.884l-1.054-4.318a7.728 7.728 0 0 1-1.122.442c-.43.136-.85.204-1.258.204-.453 0-.827-.13-1.122-.39-.295-.262-.442-.687-.442-1.276v-7.446h3.638V7.15h-3.638V1.472h-5.44V7.15h-2.278v4.114h2.278v9.316c0 .861.13 1.598.391 2.21.26.612.618 1.105 1.071 1.48.453.373.98.645 1.581.815.6.17 1.241.255 1.921.255.975 0 1.944-.136 2.907-.408ZM92.627.18h5.44v18.462c0 1.36.578 2.04 1.734 2.04.272 0 .573-.04.901-.119.329-.08.629-.198.901-.357l.714 4.08c-.68.317-1.462.567-2.346.748a12.39 12.39 0 0 1-2.482.272c-1.564 0-2.765-.408-3.604-1.224-.839-.816-1.258-1.995-1.258-3.536V.18Zm12.731 27.846a7.992 7.992 0 0 1-1.275-.34v4.658c.476.181.947.312 1.411.391.465.08.924.12 1.377.12 1.678 0 3.128-.46 4.352-1.378a7.107 7.107 0 0 0 2.55-3.587l6.8-20.74h-5.1l-3.57 13.192-4.148-13.192h-5.61l6.8 17.85c-.294 1.179-.623 1.995-.986 2.448-.362.453-.872.68-1.53.68-.317 0-.674-.034-1.071-.102Z" fill="#34313D"/></svg>
